img/benefits/Group 35.svg

<svg width="92" height="63" viewBox="0 0 92 63" fill="none" xmlns="http://www.w3.org/2000/svg">
<rect x="0.2" y="0.2" width="91.6" height="62.6" rx="27.8" fill="#F9FBFF" stroke="#0037FC" stroke-width="0.4"/>
<path d="M59.182 24.4794C56.4628 19.8511 51.438 17 46.0002 17C40.5623 17 35.5375 19.8511 32.8184 24.4794L33.7316 40.6364L59.182 24.4794Z" fill="#0037FC"/>
<path d="M39.5906 35.6371L33.0299 24.2734C30.3234 28.9613 30.3233 34.7369 33.0298 39.4248C35.7363 44.1127 40.7382 47.0006 46.1513 47.0007L61 31.8492L39.5906 35.6371Z" fill="#0037FC"/>
<path d="M52.7537 35.6371L46.4541 47.0007C51.6513 46.9995 56.4531 44.1111 59.0512 39.4235C61.6493 34.7358 61.649 28.9608 59.0504 24.2734H46.4541L52.7537 35.6371Z" fill="#408DFF"/>
<path d="M45.9997 39.728C48.7604 39.728 51.3114 38.2552 52.6917 35.8643C54.0721 33.4735 54.0721 30.5279 52.6917 28.1371C51.3114 25.7462 48.7604 24.2734 45.9997 24.2734C41.7321 24.2734 38.2725 27.7331 38.2725 32.0007C38.2725 36.2684 41.7321 39.728 45.9997 39.728Z" fill="white"/>
<path d="M45.9999 37.908C48.111 37.908 50.0618 36.7818 51.1173 34.9535C52.1729 33.1252 52.1729 30.8727 51.1173 29.0444C50.0618 27.2161 48.111 26.0898 45.9999 26.0898C42.7364 26.0898 40.0908 28.7354 40.0908 31.9989C40.0908 35.2624 42.7364 37.908 45.9999 37.908Z" fill="#0037FC"/>
</svg>

<svg width="92" height="63" fill="none" xmlns="http://www.w3.org/2000/svg"><rect x=".2" y=".2" width="91.6" height="62.6" rx="27.8" fill="#F9FBFF" stroke="#0037FC" stroke-width=".4"/><path d="M59.182 24.48C56.462 19.85 51.438 17 46 17c-5.438 0-10.462 2.851-13.182 7.48l.914 16.156 25.45-16.157z" fill="#0037FC"/><path d="M39.59 35.637l-6.56-11.364a15.152 15.152 0 0013.12 22.728L61 31.849l-21.41 3.788z" fill="#0037FC"/><path d="M52.754 35.637l-6.3 11.364c5.197-.002 10-2.89 12.597-7.578a15.697 15.697 0 000-15.15H46.453l6.3 11.364z" fill="#408DFF"/><path d="M46 39.728a7.727 7.727 0 100-15.454 7.727 7.727 0 000 15.454z" fill="#fff"/><path d="M46 37.908a5.909 5.909 0 100-11.818 5.909 5.909 0 000 11.818z" fill="#0037FC"/></svg>
